X: 28654
T: Musical Priest, The
R: reel
M: 4/4
K: Gminor
|:GF|DGGF GFGB|AGFd cAGF|DGGF GFGB|AGFD G2 GA:|
|:B2 BA BdcB|AFcF dF c2|BAGA Bcdg|fdcA G2 GA:|
|:BG G2 gfdg|fdcA FGAc|BG G2 gfdg|fdcA G2 G2:|

